X:52
T:Donna Lee
C:Charlie Parker
N:
L:1/8
Q:1/4=160
M:4/4
K:Ab
z8 | "Abo "z3g g"Gb7"a/g/ f=e | "F7"ed cB =AC EF | (3"Bb7"_GAG FE =DF Ac | GF4=E E=D | 
"Bbm"E=A, B,D FA ce | "Eb7"dF Ac =B=E _ED | "Abo "CE GB A2 EF | "Ebm"_GB df "Ab7"=ec3 | 
"Dbo"ee ee ed cB | "Gb7"ed3 _g=e _ed | "Abo "cc d=d e_d cB | "F7b9"=Ac ef _g/a/g fe | 
"Bb7"=dc =B=A _B_A CE | (3G_GF =E6 | "Bbm"ed FA c=B FA | "Eb7"GB dB (3=e_ge _ed | 
"Abo "c4 (3gag "F7"fb | ed cB =AC EF | "Bb7"(3_GAG B,A, =DF Ac | GF4z GF | "C7+9"=EF G=A BA GF | 
"Go"(3ded cB "C7+9"(3ABA G=E | "Fm"F8 | "C7+9"z7/1G | "Fm"c=B cd =d_d =de | "C7+9"=e_e =e_e =d_d cB | 
"Fm"(3ABA GA BA GF | "B7"=B,=D FA =Bg f=e | "Cm"ed cB "F7"=A_G FE | "Bbm"DF Ac "Eb7"BA GF | 
"Abo "A8 | z8 | 


